package/converter/svg/solid/square-j.svg

<svg xmlns="http://www.w3.org/2000/svg" viewBox="0 0 448 512"><!-- Font Awesome Pro 6.0.0-alpha2 by @fontawesome - https://fontawesome.com License - https://fontawesome.com/license (Commercial License) --><path d="M384 32H64C28.654 32 0 60.654 0 96V416C0 451.346 28.654 480 64 480H384C419.346 480 448 451.346 448 416V96C448 60.654 419.346 32 384 32ZM304 290.672C304 342.141 260.938 384 208 384S112 342.141 112 290.672V280C112 266.75 122.75 256 136 256S160 266.75 160 280V290.672C160 315.672 181.531 336 208 336S256 315.672 256 290.672V152C256 138.75 266.75 128 280 128S304 138.75 304 152V290.672Z"/></svg>

<svg xmlns="http://www.w3.org/2000/svg" viewBox="0 0 448 512"><!--! Font Awesome Pro 6.6.0 by @fontawesome - https://fontawesome.com License - https://fontawesome.com/license (Commercial License) Copyright 2024 Fonticons, Inc. --><path d="M64 32C28.7 32 0 60.7 0 96L0 416c0 35.3 28.7 64 64 64l320 0c35.3 0 64-28.7 64-64l0-320c0-35.3-28.7-64-64-64L64 32zM304 152l0 136c0 53-43 96-96 96s-96-43-96-96l0-8c0-13.3 10.7-24 24-24s24 10.7 24 24l0 8c0 26.5 21.5 48 48 48s48-21.5 48-48l0-136c0-13.3 10.7-24 24-24s24 10.7 24 24z"/></svg>
